Newaita/actions/16/mail-reply-sender.svg

<svg height="16" viewBox="0 0 16 16" width="16" xmlns="http://www.w3.org/2000/svg"><g fill="#424242"><path d="m3.636719 11.039062v1.324219h3.996093c.183594 0 .328126-.148437.328126-.332031v-.660156c0-.183594-.144532-.332032-.328126-.332032zm0 0"/><path d="m3.96875 13.355469v-3.308594l-2.644531 1.65625zm0 0"/><path d="m2.644531 2.769531h10.585938c.734375 0 1.324219.589844 1.324219 1.324219v7.9375c0 .734375-.589844 1.324219-1.324219 1.324219h-3.96875v-1.324219h3.308593c.363282 0 .660157-.292969.660157-.660156v-6.46875l-4.855469 4.316406c-.25.21875-.625.21875-.875 0l-4.855469-4.316406v3.824218h-1.320312v-4.632812c0-.734375.589843-1.324219 1.320312-1.324219zm9.511719 1.324219h-8.4375l4.21875 3.75zm0 0"/></g></svg>

<?xml version="1.0" encoding="UTF-8"?>
<svg xmlns="http://www.w3.org/2000/svg" xmlns:xlink="http://www.w3.org/1999/xlink" width="16px" height="16px" viewBox="0 0 16 16" version="1.1">
<g id="surface1">
<path style=" stroke:none;fill-rule:nonzero;fill:rgb(25.882354%,25.882354%,25.882354%);fill-opacity:1;" d="M 3.636719 11.039062 L 3.636719 12.363281 L 7.632812 12.363281 C 7.816406 12.363281 7.960938 12.214844 7.960938 12.03125 L 7.960938 11.371094 C 7.960938 11.1875 7.816406 11.039062 7.632812 11.039062 Z M 3.636719 11.039062 "/>
<path style=" stroke:none;fill-rule:nonzero;fill:rgb(25.882354%,25.882354%,25.882354%);fill-opacity:1;" d="M 3.96875 13.355469 L 3.96875 10.046875 L 1.324219 11.703125 Z M 3.96875 13.355469 "/>
<path style=" stroke:none;fill-rule:nonzero;fill:rgb(25.882354%,25.882354%,25.882354%);fill-opacity:1;" d="M 2.644531 2.769531 L 13.230469 2.769531 C 13.964844 2.769531 14.554688 3.359375 14.554688 4.09375 L 14.554688 12.03125 C 14.554688 12.765625 13.964844 13.355469 13.230469 13.355469 L 9.261719 13.355469 L 9.261719 12.03125 L 12.570312 12.03125 C 12.933594 12.03125 13.230469 11.738281 13.230469 11.371094 L 13.230469 4.902344 L 8.375 9.21875 C 8.125 9.4375 7.75 9.4375 7.5 9.21875 L 2.644531 4.902344 L 2.644531 8.726562 L 1.324219 8.726562 L 1.324219 4.09375 C 1.324219 3.359375 1.914062 2.769531 2.644531 2.769531 Z M 12.15625 4.09375 L 3.71875 4.09375 L 7.9375 7.84375 Z M 12.15625 4.09375 "/>
</g>
</svg>
